X: 60
T: Motet cycle Quam pulchra es &mdash; 1. Quam pulchra es
C: Gaspar van Weerbeke
%%abc-version 2.0
%%abcx-abcm2ps-target-version 5.9.1 (29 Sep 2008)
%%abc-creator hum2abc beta
%%abcx-conversion-date 2022/03/06 13:05:56
%%abc-copyright Copyright 2021, Pavanello, Agnese
%%abc-edited-by Sapp, Craig Stuart
%%abc-edited-by Wissmann, Rolf
%%humdrum-veritas 1416459442
%%humdrum-veritas-data 2110672806
%%linebreak <none>
%%barnumbers 0
L: 1/4
M: C
N: Derived from Gas0302a-Quam_pulchra_es-Quam_pulchra_es.krn
%%staves [1 2 3 4]
V: 1 clef=treble
V: 2 clef=treble-8
V: 3 clef=treble-8
V: 4 clef=bass
K: F
[V:1] G8 | 
[V:2] d6B2- | 
[V:3] G8 | 
[V:4] G,8 | 
[V:1] G6G2 | 
[V:2] B2G6 | 
[V:3] B4c4 | 
[V:4] _E,6E,2 | 
[V:1] F4F2D2 | 
[V:2] A6B2 | 
[V:3] d6d2 | 
[V:4] D,6G,2 | 
[V:1] E2>F2G2A2- | 
[V:2] G2g2e2f2- | 
[V:3] c4B2c2 | 
[V:4] C,4G,2F,2 | 
[V:1] A2G4^F2 | 
[V:2] f2d6 | 
[V:3] d2B2A4 | 
[V:4] D,2G,2D,4 | 
[V:1] G4d4 | 
[V:2] d4d2d2 | 
[V:3] G4z4 | 
[V:4] z4G,4 | 
[V:1] d2d2B4 | 
[V:2] B4G4 | 
[V:3] d4d2d2 | 
[V:4] G,2G,2G,4 | 
[V:1] G2B4AG | 
[V:2] z4G4 | 
[V:3] B4G4 | 
[V:4] G,6E,2 | 
[V:1] F4F2G2 | 
[V:2] A4A2G2 | 
[V:3] d4d2c2 | 
[V:4] D,4F,2E,2 | 
[V:1] F2B2A2B2- | 
[V:2] A2B2c2B2- | 
[V:3] d2>e2f2_e2- | 
[V:4] F,2G,2A,2G,2- | 
[V:1] B2F2G4 | 
[V:2] B2A4G2 | 
[V:3] e2d4c2 | 
[V:4] G,2F,2_E,4 | 
[V:1] F8 | 
[V:2] A4z4 | 
[V:3] d8 | 
[V:4] D,8 | 
[V:1] B6B2 | 
[V:2] g6g2 | 
[V:3] d6d2 | 
[V:4] G,6G,2 | 
[V:1] A4G2A2- | 
[V:2] f4e2f2- | 
[V:3] d4B2c2- | 
[V:4] D,4G,2F,2- | 
[V:1] A2G4^F2 | 
[V:2] fec2d4 | 
[V:3] c2G2A4 | 
[V:4] F,2E,2D,4 | 
[V:1] G4z4 | 
[V:2] B2B2B2G2- | 
[V:3] G4z4 | 
[V:4] z2G,2G,2G,2 | 
[V:1] z2c2c2c2 | 
[V:2] G2G2G4 | 
[V:3] z4c4 | 
[V:4] E,2C,2C,4 | 
[V:1] A6F2 | 
[V:2] A2>B2c4- | 
[V:3] c2c2A4- | 
[V:4] F,4F,3G, | 
[V:1] F2A2>B2c2- | 
[V:2] c2A4F2 | 
[V:3] A2F2F2A2- | 
[V:4] A,B,C4A,2 | 
[V:1] cBA4G2- | 
[V:2] f4c2_e2- | 
[V:3] ABc2A2B2- | 
[V:4] F,6_E,2- | 
[V:1] G2F4E2 | 
[V:2] e2c6 | 
[V:3] B2A2G4 | 
[V:4] E,2F,2C,4 | 
[V:1] F4z2F2 | 
[V:2] A4z2c2 | 
[V:3] F8 | 
[V:4] C4C2A,2 | 
[V:1] B2A2B2c2 | 
[V:2] d2c2d2f2- | 
[V:3] z2F2B2A2 | 
[V:4] G,2A,2G,2F,2 | 
[V:1] d2c2f2e2- | 
[V:2] f2f4a2 | 
[V:3] B2c2d2c2 | 
[V:4] B,2F,2D,2A,2 | 
[V:1] e2d4^c2 | 
[V:2] _b2g2a4 | 
[V:3] f2g2e4 | 
[V:4] D2B,2A,4 | 
[V:1] d4z4 | 
[V:2] f4z2f2 | 
[V:3] d8 | 
[V:4] z2B,2B,2B,2 | 
[V:1] f4d2d2- | 
[V:2] f2f2a4 | 
[V:3] z4f4 | 
[V:4] F,6D,2 | 
[V:1] d2B2B2d2- | 
[V:2] g6d2 | 
[V:3] d2d4B2 | 
[V:4] G,8 | 
[V:1] d2f4d2- | 
[V:2] B2f6- | 
[V:3] B2d4f2 | 
[V:4] G,2F,2D,2_B,,2 | 
[V:1] d2cB2<A2G | 
[V:2] f2e2f4 | 
[V:3] d2e2c4 | 
[V:4] B,2G,2F,4 | 
[V:1] B4z2G2 | 
[V:2] z2B2B2B2 | 
[V:3] B4z2d2 | 
[V:4] z2G,2G,2G,2 | 
[V:1] A6A2 | 
[V:2] F2f2f2f2 | 
[V:3] d2d2A4 | 
[V:4] D,4F,2F,2 | 
[V:1] B4B3A | 
[V:2] B4d3c | 
[V:3] d4B2G2- | 
[V:4] G,8 | 
[V:1] G2A4G2- | 
[V:2] def2d4- | 
[V:3] G2F2G2B2 | 
[V:4] B,2A,2B,2G,2 | 
[V:1] G2^F2G4 | 
[V:2] d2d2B2G2 | 
[V:3] A4G4 | 
[V:4] D,4_E,3F, | 
[V:1] D2E4F2 | 
[V:2] g6f2 | 
[V:3] B2c4d2 | 
[V:4] G,2C,2E,2D,2 | 
[V:1] D2G4^F2 | 
[V:2] g2e2d4 | 
[V:3] B2c2A4 | 
[V:4] G,2C,2D,4 | 
[V:1] [M:3/1]G4G2B4c2 | 
[V:2] [M:3/1]z12 | 
[V:3] [M:3/1]G4G2d4e2 | 
[V:4] [M:3/1]z12 | 
[V:1] d4cB2<A2GA2 | 
[V:2] z12 | 
[V:3] f4edc4c2 | 
[V:4] z12 | 
[V:1] B4z2z6 | 
[V:2] z4f2e4e2 | 
[V:3] B4z2z6 | 
[V:4] z4B,2C4C2 | 
[V:1] z12 | 
[V:2] d4e2g4^f2 | 
[V:3] z12 | 
[V:4] D4C2B,2A,4 | 
[V:1] z4G2G2>A2Bc | 
[V:2] g4z2z6 | 
[V:3] z4G2B2>c2d2 | 
[V:4] G,4z2z6 | 
[V:1] A2G2>F2F4E2 | 
[V:2] z12 | 
[V:3] c4A2F2G4 | 
[V:4] z12 | 
[V:1] F4z2z6 | 
[V:2] z4f2e2>f2ga | 
[V:3] F4z2z6 | 
[V:4] z4F,2G,4G,2 | 
[V:1] z12 | 
[V:2] f2e2>d2d4^c2 | 
[V:3] z12 | 
[V:4] A,4G,2F,2E,4 | 
[V:1] z4F2F4F2 | 
[V:2] d4A2B4A2 | 
[V:3] z4d2d4d2 | 
[V:4] D,4D,2_B,,4D,2 | 
[V:1] G4F2B4A2 | 
[V:2] c4f2e2f4 | 
[V:3] _e4d2B2c4 | 
[V:4] C,4D,2G,2F,4 | 
[V:1] B4d2d2>c2B2 | 
[V:2] d4d2d4d2 | 
[V:3] B4B2B4B2 | 
[V:4] z4G,2G,4G,2 | 
[V:1] A4D2G4^F2 | 
[V:2] f4dBc2d4 | 
[V:3] c4B2G2A4 | 
[V:4] F,4G,2E,2D,4 | 
[V:1] G4F2B4c2 | 
[V:2] z12 | 
[V:3] G4z2z4F2 | 
[V:4] z12 | 
[V:1] d4c2f4e2 | 
[V:2] z12 | 
[V:3] B4c2d4c2 | 
[V:4] z12 | 
[V:1] g2>f2edd4^c2 | 
[V:2] z12 | 
[V:3] e4g2f2e4 | 
[V:4] z12 | 
[V:1] d4z2z6 | 
[V:2] f4e2f4g2 | 
[V:3] d4z2z6 | 
[V:4] z6F,4E,2 | 
[V:1] z12 | 
[V:2] a4g2f4e2 | 
[V:3] z12 | 
[V:4] F,4G,2A,4G,2 | 
[V:1] z12 | 
[V:2] d4e2g4^f2 | 
[V:3] z12 | 
[V:4] F,2G,4B,2A,4 | 
[V:1] B4A2B4c2 | 
[V:2] g4z2d4c2 | 
[V:3] z6B4A2 | 
[V:4] G,4F,2G,4A,2 | 
[V:1] d4c2B4A2 | 
[V:2] B2G2A2B4z2 | 
[V:3] B4c2d4c2 | 
[V:4] G,4F,2_B,,4F,2 | 
[V:1] G2A2>G2G4^F2 | 
[V:2] d2f4c2d4 | 
[V:3] B2c4G2A4 | 
[V:4] G,2F,4E,2D,4 | 
[V:1] G8 |]  
[V:2] d8 |]  
[V:3] G8 |]  
[V:4] G,8 |]  


